X: 38262
T: St-Etienne
R: reel
M: 4/4
K: Dmajor
|:AG|FdAF d2AG|FdAF d2ed|ceAc eAce|AecA (3BcB AG|
FdAF d2AG|FdAF d2ed|ceAc eABc|dfec d2:|

